; generated by PrusaSlicer 2.6.0-beta2+win64 on 2023-05-20 at 17:49:07 UTC

; 

; external perimeters extrusion width = 0.40mm
; perimeters extrusion width = 0.40mm
; infill extrusion width = 0.40mm
; solid infill extrusion width = 0.40mm
; top infill extrusion width = 0.40mm
; first layer extrusion width = 0.40mm

M201 X500 Y500 Z100 E5000 ; sets maximum accelerations, mm/sec^2
M203 X500 Y500 Z10 E60 ; sets maximum feedrates, mm / sec
M204 S500 T1000 ; sets acceleration (S) and retract acceleration (R), mm/sec^2
M205 X8.00 Y8.00 Z0.40 E5.00 ; sets the jerk limits, mm/sec
M205 S0 T0 ; sets the minimum extruding and travel feed rate, mm/sec
;TYPE:Custom
G90 ; use absolute coordinates
M83 ; extruder relative mode
M104 S150 ; set temporary nozzle temp to prevent oozing during homing
M140 S60 ; set final bed temp
G4 S30 ; allow partial nozzle warmup
G28 ; home all axis
M420 S1 Z5
G1 Z50 F240
G1 X2.0 Y10 F3000
M104 S215 ; set final nozzle temp
M190 S60 ; wait for bed temp to stabilize
M109 S215 ; wait for nozzle temp to stabilize
G1 Z0.28 F240
G92 E0
G1 X2.0 Y140 E10 F1500 ; prime the nozzle
G1 X2.3 Y140 F5000
G92 E0
G1 X2.3 Y10 E10 F1200 ; prime the nozzle
G92 E0
G21 ; set units to millimeters
G90 ; use absolute coordinates
M83 ; use relative distances for extrusion
; Filament gcode
M107
;LAYER_CHANGE
;Z:0.2
;HEIGHT:0.2
;BEFORE_LAYER_CHANGE
G92 E0
;0.2


G1 E-5 F3600
G1 Z.2 F9000
;AFTER_LAYER_CHANGE
;0.2
G1 X100.399 Y119.439
G1 E5 F2400
M204 S500
;TYPE:Skirt/Brim
;WIDTH:0.4
G1 F900
G1 X100.863 Y119.059 E.01781
G1 X101.346 Y118.763 E.01682
G1 X102.1 Y118.457 E.02416
G1 X103.053 Y118.28 E.02878
G1 X126.526 Y116.853 E.69823
G1 X127.626 Y116.824 E.03267
G1 X128.77 Y116.865 E.03399
G1 X129.843 Y116.973 E.03202
G1 X130.832 Y117.134 E.02975
G1 X132.091 Y117.423 E.03835
G1 X133.067 Y117.716 E.03026
G1 X134.304 Y118.18 E.03923
G1 X135.321 Y118.646 E.03322
G1 X136.386 Y119.222 E.03595
G1 X137.262 Y119.77 E.03068
G1 X138.332 Y120.545 E.03923
G1 X139.217 Y121.289 E.03433
G1 X140.042 Y122.08 E.03394
G1 X140.793 Y122.9 E.03301
G1 X141.525 Y123.81 E.03468
G1 X142.17 Y124.731 E.03338
G1 X142.806 Y125.804 E.03703
G1 X143.117 Y126.723 E.02881
G1 X143.196 Y127.508 E.02343
G1 X143.113 Y128.292 E.02341
G1 X142.802 Y129.204 E.02861
G1 X142.075 Y130.412 E.04186
G1 X141.18 Y131.665 E.04572
G1 X140.845 Y132.182 E.01829
G1 X139.93 Y133.17 E.03998
G1 X139.385 Y133.585 E.02034
G1 X138.115 Y134.621 E.04866
G1 X136.973 Y135.419 E.04137
G1 X135.853 Y136.078 E.03858
G1 X134.797 Y136.604 E.03503
G1 X133.74 Y137.045 E.03401
G1 X132.703 Y137.4 E.03254
G1 X131.67 Y137.685 E.03182
G1 X130.587 Y137.912 E.03285
G1 X129.535 Y138.064 E.03156
G1 X128.397 Y138.157 E.0339
G1 X127.255 Y138.175 E.03391
G1 X126.503 Y138.145 E.02235
G1 X102.972 Y136.712 E.69996
G1 X102.517 Y136.648 E.01364
G1 X102.066 Y136.535 E.0138
G1 X101.088 Y136.09 E.0319
G1 X100.585 Y135.727 E.01842
G1 X100.195 Y135.354 E.01602
G1 X99.85 Y134.927 E.0163
G1 X99.555 Y134.442 E.01685
G1 X99.191 Y133.492 E.03021
G1 X99.089 Y132.956 E.0162
G1 X99.052 Y132.462 E.01471
G1 X99.038 Y127.449 E.14884
G1 X99.062 Y122.324 E.15217
G1 X99.221 Y121.396 E.02796
G1 X99.427 Y120.823 E.01808
G1 X99.708 Y120.287 E.01797
G1 X100.028 Y119.839 E.01635
G1 X100.358 Y119.483 E.01441
G1 X100.619 Y119.727 F9000
G1 F900
G1 X101.061 Y119.357 E.01711
G1 X101.494 Y119.088 E.01514
G1 X102.217 Y118.795 E.02316
G1 X103.086 Y118.635 E.02624
G1 X126.545 Y117.21 E.69781
G1 X127.619 Y117.181 E.0319
G1 X128.751 Y117.221 E.03363
G1 X129.791 Y117.327 E.03104
G1 X130.757 Y117.483 E.02905
G1 X131.995 Y117.767 E.03771
G1 X132.947 Y118.053 E.02951
G1 X134.161 Y118.507 E.03848
G1 X135.157 Y118.963 E.03252
G1 X136.202 Y119.527 E.03526
G1 X137.057 Y120.063 E.02996
G1 X138.107 Y120.823 E.03849
G1 X138.974 Y121.551 E.03361
G1 X139.782 Y122.326 E.03324
G1 X140.519 Y123.129 E.03236
G1 X141.236 Y124.02 E.03396
G1 X141.866 Y124.919 E.03259
G1 X142.489 Y125.969 E.03625
G1 X142.771 Y126.817 E.02653
G1 X142.839 Y127.491 E.02011
G1 X142.768 Y128.198 E.0211
G1 X142.486 Y129.037 E.02628
G1 X141.78 Y130.21 E.04065
G1 X140.885 Y131.464 E.04574
G1 X140.554 Y131.975 E.01808
G1 X139.68 Y132.915 E.03811
G1 X139.165 Y133.304 E.01916
G1 X137.895 Y134.34 E.04866
G1 X136.774 Y135.122 E.04058
G1 X135.678 Y135.767 E.03776
G1 X134.644 Y136.281 E.03428
G1 X133.608 Y136.713 E.03333
G1 X132.603 Y137.058 E.03155
G1 X131.592 Y137.336 E.03113
G1 X130.52 Y137.561 E.03252
G1 X129.49 Y137.71 E.0309
G1 X128.386 Y137.8 E.03289
G1 X127.264 Y137.818 E.03332
G1 X126.523 Y137.789 E.02202
G1 X103.015 Y136.357 E.69928
G1 X102.577 Y136.296 E.01313
G1 X102.17 Y136.193 E.01247
G1 X101.253 Y135.773 E.02995
G1 X100.822 Y135.46 E.01582
G1 X100.464 Y135.12 E.01466
G1 X100.147 Y134.729 E.01495
G1 X99.882 Y134.299 E.015
G1 X99.531 Y133.38 E.02921
G1 X99.442 Y132.901 E.01447
G1 X99.408 Y132.442 E.01367
G1 X99.395 Y127.45 E.14822
G1 X99.419 Y122.341 E.15169
G1 X99.562 Y121.501 E.0253
G1 X99.75 Y120.977 E.01653
G1 X100.019 Y120.464 E.0172
G1 X100.311 Y120.057 E.01487
G1 X100.578 Y119.771 E.01162
G1 X100.839 Y120.015 F9000
G1 F900
G1 X101.26 Y119.653 E.01649
G1 X101.643 Y119.413 E.01342
G1 X102.334 Y119.133 E.02214
G1 X103.118 Y118.991 E.02366
G1 X126.563 Y117.567 E.6974
G1 X127.612 Y117.538 E.03116
G1 X128.732 Y117.578 E.03328
G1 X129.74 Y117.68 E.03008
G1 X130.683 Y117.832 E.02836
G1 X131.898 Y118.111 E.03701
G1 X132.828 Y118.389 E.02882
G1 X134.018 Y118.835 E.03773
G1 X134.993 Y119.28 E.03182
G1 X136.017 Y119.833 E.03455
G1 X136.853 Y120.356 E.02928
G1 X137.882 Y121.101 E.03772
G1 X138.732 Y121.813 E.03292
G1 X139.523 Y122.571 E.03253
G1 X140.244 Y123.357 E.03167
G1 X140.947 Y124.23 E.03328
G1 X141.563 Y125.108 E.03185
G1 X142.172 Y126.135 E.03545
G1 X142.418 Y126.872 E.02307
G1 X142.482 Y127.508 E.01898
G1 X142.415 Y128.14 E.01887
G1 X142.17 Y128.87 E.02286
G1 X141.478 Y130.02 E.03985
G1 X140.589 Y131.263 E.04537
G1 X140.262 Y131.767 E.01784
G1 X139.43 Y132.66 E.03624
G1 X138.945 Y133.022 E.01797
G1 X137.674 Y134.06 E.04872
G1 X136.576 Y134.825 E.03973
G1 X135.502 Y135.456 E.03698
G1 X134.49 Y135.959 E.03355
G1 X133.476 Y136.381 E.03261
G1 X132.503 Y136.715 E.03054
G1 X131.513 Y136.988 E.03049
G1 X130.452 Y137.21 E.03218
G1 X129.444 Y137.356 E.03024
G1 X128.363 Y137.444 E.0322
G1 X127.273 Y137.461 E.03237
G1 X126.542 Y137.432 E.02172
G1 X103.057 Y136.003 E.69859
G1 X102.654 Y135.947 E.01208
G1 X102.273 Y135.851 E.01167
G1 X101.42 Y135.457 E.0279
G1 X101.059 Y135.193 E.01328
G1 X100.734 Y134.885 E.01329
G1 X100.444 Y134.529 E.01363
G1 X100.209 Y134.155 E.01311
G1 X99.871 Y133.269 E.02816
G1 X99.795 Y132.848 E.0127
G1 X99.765 Y132.423 E.01265
G1 X99.752 Y127.45 E.14766
G1 X99.776 Y122.357 E.15122
G1 X99.904 Y121.607 E.02259
G1 X100.081 Y121.11 E.01566
G1 X100.328 Y120.643 E.01569
G1 X100.593 Y120.276 E.01344
G1 X100.798 Y120.058 E.00889
G1 X101.058 Y120.301 F9000
G1 F900
G1 X101.46 Y119.949 E.01586
G1 X101.819 Y119.725 E.01256
G1 X102.45 Y119.471 E.0202
G1 X103.149 Y119.347 E.02108
G1 X126.582 Y117.923 E.69704
G1 X127.605 Y117.895 E.03039
G1 X128.714 Y117.935 E.03295
G1 X129.688 Y118.033 E.02907
G1 X130.609 Y118.182 E.0277
G1 X131.801 Y118.455 E.03631
G1 X132.708 Y118.726 E.02811
G1 X133.876 Y119.162 E.03702
G1 X134.828 Y119.597 E.03108
G1 X135.833 Y120.139 E.0339
G1 X136.649 Y120.649 E.02857
G1 X137.658 Y121.379 E.03698
G1 X138.498 Y122.083 E.03254
G1 X139.264 Y122.817 E.0315
G1 X139.97 Y123.586 E.031
G1 X140.658 Y124.44 E.03256
G1 X141.259 Y125.296 E.03105
G1 X141.855 Y126.301 E.03469
G1 X142.065 Y126.93 E.01969
G1 X142.125 Y127.49 E.01672
G1 X142.062 Y128.083 E.01771
G1 X141.854 Y128.702 E.01939
G1 X141.176 Y129.83 E.03908
G1 X140.294 Y131.061 E.04496
G1 X139.972 Y131.559 E.01761
G1 X139.181 Y132.403 E.03434
G1 X138.726 Y132.74 E.01681
G1 X137.454 Y133.779 E.04877
G1 X136.389 Y134.521 E.03854
G1 X135.327 Y135.145 E.03657
G1 X134.337 Y135.637 E.03282
G1 X133.344 Y136.049 E.03192
G1 X132.402 Y136.372 E.02957
G1 X131.434 Y136.64 E.02982
G1 X130.384 Y136.86 E.03185
G1 X129.399 Y137.002 E.02955
G1 X128.351 Y137.087 E.03122
G1 X127.282 Y137.104 E.03174
G1 X126.562 Y137.075 E.0214
G1 X103.098 Y135.648 E.69796
G1 X102.732 Y135.598 E.01097
G1 X102.377 Y135.509 E.01087
G1 X101.615 Y135.157 E.02492
G1 X101.295 Y134.925 E.01174
G1 X101.002 Y134.649 E.01195
G1 X100.74 Y134.33 E.01226
G1 X100.521 Y133.98 E.01226
G1 X100.219 Y133.189 E.02514
G1 X100.149 Y132.795 E.01188
G1 X100.121 Y132.404 E.01164
G1 X100.109 Y127.451 E.14706
G1 X100.131 Y122.401 E.14994
G1 X100.246 Y121.711 E.02077
G1 X100.404 Y121.264 E.01408
G1 X100.626 Y120.84 E.01421
G1 X100.863 Y120.511 E.01204
G1 X101.017 Y120.345 E.00672
G1 X101.277 Y120.589 F9000
G1 F900
G1 X101.392 Y120.466 E.005
G1 X101.677 Y120.233 E.01093
G1 X101.994 Y120.037 E.01107
G1 X102.564 Y119.81 E.01822
G1 X103.18 Y119.703 E.01856
G1 X126.601 Y118.28 E.69668
G1 X127.598 Y118.252 E.02961
G1 X128.695 Y118.291 E.03259
G1 X129.637 Y118.387 E.02811
G1 X130.536 Y118.531 E.02703
G1 X131.705 Y118.799 E.03561
G1 X132.589 Y119.063 E.02739
G1 X133.733 Y119.49 E.03626
G1 X134.664 Y119.915 E.03039
G1 X135.649 Y120.445 E.03321
G1 X136.444 Y120.942 E.02784
G1 X137.433 Y121.656 E.03622
G1 X138.264 Y122.353 E.0322
G1 X139.005 Y123.063 E.03047
G1 X139.695 Y123.814 E.03028
G1 X140.369 Y124.65 E.03188
G1 X140.955 Y125.484 E.03026
G1 X141.538 Y126.467 E.03393
G1 X141.712 Y126.987 E.01628
G1 X141.768 Y127.508 E.01556
G1 X141.71 Y128.024 E.01542
G1 X141.538 Y128.535 E.01601
G1 X140.873 Y129.64 E.03829
G1 X139.999 Y130.86 E.04456
G1 X139.681 Y131.352 E.01739
G1 X138.933 Y132.146 E.03239
G1 X138.508 Y132.457 E.01564
G1 X137.233 Y133.498 E.04887
G1 X136.202 Y134.216 E.0373
G1 X135.151 Y134.834 E.0362
G1 X134.184 Y135.314 E.03205
G1 X133.212 Y135.717 E.03124
G1 X132.302 Y136.029 E.02856
G1 X131.355 Y136.291 E.02917
G1 X130.317 Y136.509 E.03149
G1 X129.353 Y136.647 E.02891
G1 X128.328 Y136.73 E.03053
G1 X127.291 Y136.747 E.03079
G1 X126.582 Y136.719 E.02107
G1 X103.139 Y135.293 E.69734
G1 X102.809 Y135.249 E.00988
G1 X102.48 Y135.166 E.01007
G1 X101.811 Y134.858 E.02187
G1 X101.515 Y134.643 E.01086
G1 X101.256 Y134.398 E.01059
G1 X101.024 Y134.114 E.01089
G1 X100.834 Y133.806 E.01074
G1 X100.567 Y133.109 E.02216
G1 X100.504 Y132.76 E.01053
G1 X100.479 Y132.397 E.0108
G1 X100.467 Y127.451 E.14685
G1 X100.485 Y122.444 E.14867
G1 X100.588 Y121.813 E.01898
G1 X100.727 Y121.417 E.01246
G1 X100.923 Y121.038 E.01267
G1 X101.146 Y120.729 E.01131
G1 X101.236 Y120.632 E.00393
G1 X101.497 Y120.875 F9000
G1 F900
G1 X101.628 Y120.734 E.00571
G1 X101.893 Y120.518 E.01015
G1 X102.167 Y120.349 E.00956
G1 X102.676 Y120.149 E.01624
G1 X103.211 Y120.059 E.01611
G1 X126.62 Y118.636 E.69633
G1 X127.591 Y118.609 E.02884
G1 X128.677 Y118.648 E.03227
G1 X129.585 Y118.74 E.0271
G1 X130.462 Y118.881 E.02637
G1 X131.608 Y119.142 E.0349
G1 X132.47 Y119.399 E.02671
G1 X133.591 Y119.817 E.03552
G1 X134.5 Y120.232 E.02967
G1 X135.465 Y120.751 E.03253
G1 X136.24 Y121.235 E.02713
G1 X137.209 Y121.934 E.03548
G1 X138.03 Y122.623 E.03182
G1 X138.746 Y123.309 E.02944
G1 X139.421 Y124.043 E.02961
G1 X140.081 Y124.861 E.03121
G1 X140.652 Y125.673 E.02947
G1 X141.207 Y126.601 E.03211
G1 X141.36 Y127.048 E.01403
G1 X141.41 Y127.489 E.01318
G1 X141.357 Y127.964 E.01419
G1 X141.207 Y128.4 E.01369
G1 X140.572 Y129.448 E.03638
G1 X139.704 Y130.659 E.04424
G1 X139.39 Y131.143 E.01713
G1 X138.685 Y131.888 E.03045
G1 X138.291 Y132.173 E.01444
G1 X137.013 Y133.217 E.049
G1 X136.004 Y133.919 E.0365
G1 X134.976 Y134.523 E.0354
G1 X134.03 Y134.991 E.03134
G1 X133.081 Y135.385 E.03051
G1 X132.191 Y135.69 E.02793
G1 X131.266 Y135.946 E.0285
G1 X130.249 Y136.158 E.03085
G1 X129.308 Y136.293 E.02823
G1 X128.317 Y136.373 E.02952
G1 X127.3 Y136.39 E.0302
G1 X126.602 Y136.362 E.02074
G1 X103.18 Y134.938 E.69671
G1 X102.866 Y134.897 E.0094
G1 X102.584 Y134.825 E.00864
G1 X102.006 Y134.558 E.0189
G1 X101.751 Y134.375 E.00932
G1 X101.51 Y134.147 E.00985
G1 X101.31 Y133.899 E.00946
G1 X101.147 Y133.634 E.00924
G1 X100.916 Y133.029 E.01923
G1 X100.857 Y132.706 E.00975
G1 X100.836 Y132.391 E.00937
G1 X100.824 Y127.452 E.14665
G1 X100.84 Y122.486 E.14745
G1 X100.931 Y121.914 E.0172
G1 X101.05 Y121.568 E.01086
G1 X101.222 Y121.234 E.01115
G1 X101.456 Y120.919 E.01165
G1 X101.718 Y121.162 F9000
G1 F900
G1 X101.881 Y120.987 E.0071
G1 X102.108 Y120.803 E.00868
G1 X102.339 Y120.662 E.00804
G1 X102.755 Y120.498 E.01328
G1 X103.243 Y120.414 E.0147
G1 X126.638 Y118.993 E.69591
G1 X127.584 Y118.966 E.0281
G1 X128.658 Y119.005 E.03191
G1 X129.534 Y119.094 E.02614
G1 X130.388 Y119.23 E.02568
G1 X131.512 Y119.486 E.03423
G1 X132.351 Y119.736 E.02599
G1 X133.449 Y120.145 E.03479
G1 X134.336 Y120.549 E.02894
G1 X135.28 Y121.057 E.03183
G1 X136.036 Y121.528 E.02645
G1 X136.984 Y122.212 E.03471
G1 X137.796 Y122.892 E.03145
G1 X138.495 Y123.562 E.02875
G1 X139.147 Y124.272 E.02862
G1 X139.792 Y125.071 E.03049
G1 X140.35 Y125.863 E.02877
G1 X140.877 Y126.738 E.03033
G1 X141.008 Y127.109 E.01168
G1 X141.053 Y127.507 E.01189
G1 X141.005 Y127.9 E.01176
G1 X140.877 Y128.262 E.0114
G1 X140.27 Y129.256 E.03458
G1 X139.409 Y130.458 E.0439
G1 X139.1 Y130.935 E.01687
G1 X138.439 Y131.629 E.02846
G1 X138.074 Y131.889 E.01331
G1 X136.792 Y132.936 E.04915
G1 X135.805 Y133.622 E.03569
G1 X134.801 Y134.212 E.03458
G1 X133.877 Y134.669 E.03061
G1 X132.949 Y135.053 E.02982
G1 X132.081 Y135.35 E.02724
G1 X131.176 Y135.6 E.02788
G1 X130.182 Y135.808 E.03015
G1 X129.274 Y135.938 E.02723
G1 X128.305 Y136.016 E.02886
G1 X127.309 Y136.033 E.02958
G1 X126.621 Y136.006 E.02044
G1 X103.219 Y134.583 E.69612
G1 X102.944 Y134.548 E.00823
G1 X102.688 Y134.483 E.00784
G1 X102.199 Y134.258 E.01598
G1 X101.986 Y134.106 E.00777
G1 X101.779 Y133.912 E.00842
G1 X101.607 Y133.701 E.00808
G1 X101.459 Y133.461 E.00837
G1 X101.264 Y132.948 E.01629
G1 X101.213 Y132.671 E.00836
G1 X101.193 Y132.384 E.00854
G1 X101.181 Y127.453 E.14641
G1 X101.195 Y122.526 E.14629
G1 X101.274 Y122.014 E.01538
G1 X101.375 Y121.718 E.00929
G1 X101.521 Y121.429 E.00961
G1 X101.678 Y121.207 E.00807
G1 X101.956 Y121.431 F9000
G1 F900
G1 X102.133 Y121.24 E.00773
G1 X102.321 Y121.09 E.00714
G1 X102.509 Y120.976 E.00653
G1 X102.866 Y120.838 E.01136
G1 X103.273 Y120.77 E.01225
G1 X126.657 Y119.35 E.69558
G1 X127.577 Y119.323 E.02733
G1 X128.639 Y119.361 E.03155
G1 X129.483 Y119.447 E.02519
G1 X130.315 Y119.58 E.02502
G1 X131.416 Y119.83 E.03352
G1 X132.233 Y120.073 E.02531
G1 X133.307 Y120.472 E.03402
G1 X134.173 Y120.866 E.02825
G1 X135.097 Y121.363 E.03115
G1 X135.833 Y121.822 E.02575
G1 X136.76 Y122.49 E.03393
G1 X137.562 Y123.162 E.03107
G1 X138.243 Y123.816 E.02803
G1 X138.873 Y124.501 E.02763
G1 X139.504 Y125.282 E.02981
G1 X140.048 Y126.054 E.02804
G1 X140.546 Y126.874 E.02849
G1 X140.663 Y127.207 E.01048
G1 X140.696 Y127.521 E.00937
G1 X140.654 Y127.832 E.00932
G1 X140.548 Y128.122 E.00917
G1 X139.977 Y129.053 E.03243
G1 X139.113 Y130.258 E.04402
G1 X138.828 Y130.703 E.01569
G1 X138.218 Y131.348 E.02636
G1 X137.858 Y131.605 E.01313
G1 X136.572 Y132.655 E.04929
G1 X135.607 Y133.325 E.03488
G1 X134.626 Y133.9 E.03376
G1 X133.725 Y134.346 E.02985
G1 X132.818 Y134.721 E.02914
G1 X131.971 Y135.011 E.02658
G1 X131.087 Y135.254 E.02722
G1 X130.114 Y135.457 E.02951
G1 X129.229 Y135.583 E.02654
G1 X128.294 Y135.659 E.02785
G1 X127.318 Y135.676 E.02898
G1 X126.641 Y135.649 E.02012
G1 X103.257 Y134.228 E.69558
G1 X103.021 Y134.199 E.00706
G1 X102.792 Y134.141 E.00701
G1 X102.391 Y133.956 E.01311
G1 X102.219 Y133.835 E.00624
G1 X102.048 Y133.676 E.00693
G1 X101.892 Y133.485 E.00732
G1 X101.773 Y133.29 E.00678
G1 X101.612 Y132.866 E.01347
G1 X101.568 Y132.635 E.00698
G1 X101.55 Y132.377 E.00768
G1 X101.538 Y127.453 E.1462
G1 X101.552 Y122.541 E.14584
G1 X101.618 Y122.112 E.01289
G1 X101.7 Y121.865 E.00773
G1 X101.822 Y121.622 E.00807
G1 X101.921 Y121.48 E.00514
; printing object 3DBenchy.stl id:0 copy 0
G1 E-3.5 F3600
;WIPE_START
G1 F7200
G1 X102.133 Y121.24 E-.15211
G1 X102.321 Y121.09 E-.11424
G1 X102.509 Y120.976 E-.10444
G1 X102.866 Y120.838 E-.1818
G1 X103.273 Y120.77 E-.196
G1 X104.852 Y120.674 E-.75141
;WIPE_END
